X:0227
T:Drops of Drink.
M:6/8
L:1/8
Q:3/8=120
I: :: ::
Z:Jack Campin * www.campin.me.uk * 2009
K:E Minor
E   |G2G G2g|dBG   G2B  |A2B c2d|ecA A2
B   |G2G G2g|gfg   dBG  |A2B c2A|BGE E2:|
f   |e2f g2e|fed (.d2.f)|e2f g2a|bge e2
g/a/|bgb afa|geg   dBG  |A2B c2A|BGE E2:|
<end>
<start>
